X:1
T: Cecil McCausland
C:
R:Jig
Q:180
K:G
M:6/8
L:1/16
|:g2f2g2 d4g2|e4c2 A6|a2^g2a2 e4a2|f4d2 c2d2c2|
B4g2 g2d2B2|c4a2 a2e2c2|d4c'2 c'2a2f2|1g6 d6:|2g6 g4=f2|
K:C
|:e2f2g2 g2c'2g2|f6 f4fe|d2e2f2 f2b2f2|e6 e4ed|
|1c2d2e2 e2a2e2|d2e2f2 g2a2b2|c'2d'2e'2 e'2d'2c'2|d'2e'2d'2 g4f2:|
|2c2d2e2 f2g2a2|d2e2f2 g2a2b2|g2a2b2 f'2d'2b2|c'6 c'6||
